; generated by PrusaSlicer 2.2.0+linux-x64 on 2021-02-12 at 02:26:25 UTC

; 

; external perimeters extrusion width = 0.45mm
; perimeters extrusion width = 0.45mm
; infill extrusion width = 0.45mm
; solid infill extrusion width = 0.45mm
; top infill extrusion width = 0.40mm
; first layer extrusion width = 0.42mm

M73 P0 R153
M73 Q0 S153
M201 X1000 Y1000 Z200 E5000 ; sets maximum accelerations, mm/sec^2
M203 X200 Y200 Z12 E120 ; sets maximum feedrates, mm/sec
M204 P1250 R1250 T1250 ; sets acceleration (P, T) and retract acceleration (R), mm/sec^2
M205 X8.00 Y8.00 Z0.40 E4.50 ; sets the jerk limits, mm/sec
M205 S0 T0 ; sets the minimum extruding and travel feed rate, mm/sec
M107
M862.3 P "MK3" ; printer model check
M862.1 P0.4 ; nozzle diameter check
M115 U3.9.3 ; tell printer latest fw version
G90 ; use absolute coordinates
M83 ; extruder relative mode
M104 S230 ; set extruder temp
M140 S85 ; set bed temp
M190 S85 ; wait for bed temp
M109 S230 ; wait for extruder temp
G28 W ; home all without mesh bed level
G80 ; mesh bed leveling
G1 Y-3.0 F1000.0 ; go outside print area
G92 E0.0
G1 X60.0 E9.0 F1000.0 ; intro line
M73 Q0 S153
M73 P0 R153
G1 X100.0 E12.5 F1000.0 ; intro line
G92 E0.0
M221 S95

; Don't change E values below. Excessive value can damage the printer.

G21 ; set units to millimeters
G90 ; use absolute coordinates
M83 ; use relative distances for extrusion
M900 K0.08 ; Filament gcode LA 1.5
M900 K45 ; Filament gcode LA 1.0
;BEFORE_LAYER_CHANGE
G92 E0.0
;0.2


G1 E-1.40000 F2100.00000
G1 Z0.200 F10800.000
;AFTER_LAYER_CHANGE
;0.2
G1 Z0.400
G1 X46.295 Y89.587
G1 Z0.200
G1 E1.40000 F2100.00000
M204 S1000
G1 F1200.000
G1 X203.254 Y89.543 E4.92134
G1 X204.156 Y89.722 E0.02884
G1 X204.920 Y90.228 E0.02872
G1 X205.437 Y90.988 E0.02884
G1 X205.627 Y91.888 E0.02884
G1 X205.622 Y120.143 E0.88592
G1 X205.448 Y120.901 E0.02437
G1 X205.035 Y121.564 E0.02449
G1 X204.434 Y122.056 E0.02437
G1 X203.705 Y122.328 E0.02437
G1 X46.723 Y122.372 E4.92206
G1 X45.929 Y122.226 E0.02532
G1 X45.230 Y121.822 E0.02532
G1 X44.706 Y121.208 E0.02532
G1 X44.417 Y120.450 E0.02543
G1 X44.377 Y91.775 E0.89909
G1 X44.552 Y91.014 E0.02449
G1 X44.962 Y90.353 E0.02437
G1 X45.566 Y89.858 E0.02449
G1 X46.238 Y89.608 E0.02249
G1 F8640.000
G1 X51.998 Y89.605 E-1.33000
G1 E-0.07000 F2100.00000
G1 Z0.400 F10800.000
G1 X47.914 Y93.084
G1 Z0.200
G1 E1.40000 F2100.00000
G1 F1200.000
G1 X202.086 Y93.084 E4.83394
G1 X202.086 Y118.831 E0.80727
G1 X47.914 Y118.831 E4.83394
G1 X47.914 Y93.144 E0.80539
G1 X47.537 Y92.707 F10800.000
G1 F1200.000
G1 X202.463 Y92.707 E4.85759
G1 X202.463 Y119.208 E0.83092
G1 X47.537 Y119.208 E4.85759
G1 X47.537 Y92.767 E0.82904
G1 X47.160 Y92.330 F10800.000
G1 F1200.000
G1 X202.840 Y92.330 E4.88124
M73 Q0 S152
M73 P0 R152
G1 X202.840 Y119.585 E0.85457
G1 X47.160 Y119.585 E4.88124
G1 X47.160 Y92.390 E0.85268
G1 X47.559 Y92.353 F10800.000
G1 F8640.000
G1 X52.920 Y92.388 E-1.33000
G1 E-0.07000 F2100.00000
G1 Z0.400 F10800.000
G1 X201.973 Y93.961
G1 Z0.200
G1 E1.40000 F2100.00000
G1 F1200.000
G1 X201.379 Y93.367 E0.02640
G1 X200.844 Y93.367 E0.01679
G1 X201.803 Y94.326 E0.04260
G1 X201.803 Y94.860 E0.01679
G1 X200.310 Y93.367 E0.06635
G1 X199.775 Y93.367 E0.01679
G1 X201.803 Y95.394 E0.09009
G1 X201.803 Y95.929 E0.01679
G1 X199.241 Y93.367 E0.11383
G1 X198.707 Y93.367 E0.01679
G1 X201.803 Y96.463 E0.13757
G1 X201.803 Y96.997 E0.01679
G1 X198.172 Y93.367 E0.16131
G1 X197.638 Y93.367 E0.01679
G1 X201.803 Y97.532 E0.18505
G1 X201.803 Y98.066 E0.01679
G1 X197.104 Y93.367 E0.20880
G1 X196.569 Y93.367 E0.01679
G1 X201.803 Y98.600 E0.23254
G1 X201.803 Y99.135 E0.01679
G1 X196.035 Y93.367 E0.25628
G1 X195.501 Y93.367 E0.01679
G1 X201.803 Y99.669 E0.28002
G1 X201.803 Y100.204 E0.01679
G1 X194.966 Y93.367 E0.30376
G1 X194.432 Y93.367 E0.01679
G1 X201.803 Y100.738 E0.32751
G1 X201.803 Y101.272 E0.01679
G1 X193.898 Y93.367 E0.35125
G1 X193.363 Y93.367 E0.01679
G1 X201.803 Y101.807 E0.37499
G1 X201.803 Y102.341 E0.01679
G1 X192.829 Y93.367 E0.39873
G1 X192.295 Y93.367 E0.01679
G1 X201.803 Y102.875 E0.42247
G1 X201.803 Y103.410 E0.01679
G1 X191.760 Y93.367 E0.44622
G1 X191.226 Y93.367 E0.01679
G1 X201.803 Y103.944 E0.46996
G1 X201.803 Y104.478 E0.01679
G1 X190.692 Y93.367 E0.49370
G1 X190.157 Y93.367 E0.01679
G1 X201.803 Y105.013 E0.51744
G1 X201.803 Y105.547 E0.01679
G1 X189.623 Y93.367 E0.54118
G1 X189.088 Y93.367 E0.01679
G1 X201.803 Y106.081 E0.56492
G1 X201.803 Y106.616 E0.01679
G1 X188.554 Y93.367 E0.58867
G1 X188.020 Y93.367 E0.01679
G1 X201.803 Y107.150 E0.61241
G1 X201.803 Y107.684 E0.01679
G1 X187.485 Y93.367 E0.63615
G1 X186.951 Y93.367 E0.01679
G1 X201.803 Y108.219 E0.65989
G1 X201.803 Y108.753 E0.01679
G1 X186.417 Y93.367 E0.68363
G1 X185.882 Y93.367 E0.01679
G1 X201.803 Y109.287 E0.70738
G1 X201.803 Y109.822 E0.01679
G1 X185.348 Y93.367 E0.73112
G1 X184.814 Y93.367 E0.01679
G1 X201.803 Y110.356 E0.75486
G1 X201.803 Y110.891 E0.01679
G1 X184.279 Y93.367 E0.77860
G1 X183.745 Y93.367 E0.01679
G1 X201.803 Y111.425 E0.80234
G1 X201.803 Y111.959 E0.01679
G1 X183.211 Y93.367 E0.82608
G1 X182.676 Y93.367 E0.01679
G1 X201.803 Y112.494 E0.84983
G1 X201.803 Y113.028 E0.01679
G1 X182.142 Y93.367 E0.87357
G1 X181.608 Y93.367 E0.01679
G1 X201.803 Y113.562 E0.89731
G1 X201.803 Y114.097 E0.01679
G1 X181.073 Y93.367 E0.92105
G1 X180.539 Y93.367 E0.01679
G1 X201.803 Y114.631 E0.94479
G1 X201.803 Y115.165 E0.01679
G1 X180.005 Y93.367 E0.96854
G1 X179.470 Y93.367 E0.01679
G1 X201.803 Y115.700 E0.99228
G1 X201.803 Y116.234 E0.01679
G1 X178.936 Y93.367 E1.01602
G1 X178.402 Y93.367 E0.01679
G1 X201.803 Y116.768 E1.03976
G1 X201.803 Y117.303 E0.01679
G1 X177.867 Y93.367 E1.06350
G1 X177.333 Y93.367 E0.01679
G1 X201.803 Y117.837 E1.08725
G1 X201.803 Y118.371 E0.01679
G1 X176.798 Y93.367 E1.11099
G1 X176.264 Y93.367 E0.01679
G1 X201.445 Y118.548 E1.11883
G1 X200.911 Y118.548 E0.01679
G1 X175.730 Y93.367 E1.11883
M73 Q1 S151
G1 X175.195 Y93.367 E0.01679
G1 X200.377 Y118.548 E1.11883
M73 P1 R151
G1 X199.842 Y118.548 E0.01679
G1 X174.661 Y93.367 E1.11883
G1 X174.127 Y93.367 E0.01679
G1 X199.308 Y118.548 E1.11883
G1 X198.774 Y118.548 E0.01679
G1 X173.592 Y93.367 E1.11883
G1 X173.058 Y93.367 E0.01679
G1 X198.239 Y118.548 E1.11883
G1 X197.705 Y118.548 E0.01679
G1 X172.524 Y93.367 E1.11883
G1 X171.989 Y93.367 E0.01679
G1 X197.171 Y118.548 E1.11883
G1 X196.636 Y118.548 E0.01679
G1 X171.455 Y93.367 E1.11883
G1 X170.921 Y93.367 E0.01679
G1 X196.102 Y118.548 E1.11883
G1 X195.567 Y118.548 E0.01679
G1 X170.386 Y93.367 E1.11883
G1 X169.852 Y93.367 E0.01679
G1 X195.033 Y118.548 E1.11883
G1 X194.499 Y118.548 E0.01679
G1 X169.318 Y93.367 E1.11883
G1 X168.783 Y93.367 E0.01679
G1 X193.964 Y118.548 E1.11883
G1 X193.430 Y118.548 E0.01679
G1 X168.249 Y93.367 E1.11883
G1 X167.715 Y93.367 E0.01679
G1 X192.896 Y118.548 E1.11883
G1 X192.361 Y118.548 E0.01679
G1 X167.180 Y93.367 E1.11883
G1 X166.646 Y93.367 E0.01679
G1 X191.827 Y118.548 E1.11883
G1 X191.293 Y118.548 E0.01679
G1 X166.111 Y93.367 E1.11883
G1 X165.577 Y93.367 E0.01679
G1 X190.758 Y118.548 E1.11883
G1 X190.224 Y118.548 E0.01679
G1 X165.043 Y93.367 E1.11883
G1 X164.508 Y93.367 E0.01679
G1 X189.690 Y118.548 E1.11883
G1 X189.155 Y118.548 E0.01679
G1 X163.974 Y93.367 E1.11883
G1 X163.440 Y93.367 E0.01679
G1 X188.621 Y118.548 E1.11883
G1 X188.087 Y118.548 E0.01679
G1 X162.905 Y93.367 E1.11883
G1 X162.371 Y93.367 E0.01679
G1 X187.552 Y118.548 E1.11883
G1 X187.018 Y118.548 E0.01679
G1 X161.837 Y93.367 E1.11883
G1 X161.302 Y93.367 E0.01679
G1 X186.484 Y118.548 E1.11883
G1 X185.949 Y118.548 E0.01679
G1 X160.768 Y93.367 E1.11883
G1 X160.234 Y93.367 E0.01679
G1 X185.415 Y118.548 E1.11883
G1 X184.880 Y118.548 E0.01679
G1 X159.699 Y93.367 E1.11883
G1 X159.165 Y93.367 E0.01679
G1 X184.346 Y118.548 E1.11883
G1 X183.812 Y118.548 E0.01679
G1 X158.631 Y93.367 E1.11883
G1 X158.096 Y93.367 E0.01679
G1 X183.277 Y118.548 E1.11883
M73 Q2 S150
G1 X182.743 Y118.548 E0.01679
G1 X157.562 Y93.367 E1.11883
M73 P2 R150
G1 X157.028 Y93.367 E0.01679
G1 X182.209 Y118.548 E1.11883
G1 X181.674 Y118.548 E0.01679
G1 X156.493 Y93.367 E1.11883
G1 X155.959 Y93.367 E0.01679
G1 X181.140 Y118.548 E1.11883
G1 X180.606 Y118.548 E0.01679
G1 X155.424 Y93.367 E1.11883
G1 X154.890 Y93.367 E0.01679
G1 X180.071 Y118.548 E1.11883
G1 X179.537 Y118.548 E0.01679
G1 X154.356 Y93.367 E1.11883
G1 X153.821 Y93.367 E0.01679
G1 X179.003 Y118.548 E1.11883
G1 X178.468 Y118.548 E0.01679
G1 X153.287 Y93.367 E1.11883
G1 X152.753 Y93.367 E0.01679
G1 X177.934 Y118.548 E1.11883
G1 X177.400 Y118.548 E0.01679
G1 X152.218 Y93.367 E1.11883
G1 X151.684 Y93.367 E0.01679
G1 X176.865 Y118.548 E1.11883
G1 X176.331 Y118.548 E0.01679
G1 X151.150 Y93.367 E1.11883
G1 X150.615 Y93.367 E0.01679
G1 X175.797 Y118.548 E1.11883
G1 X175.262 Y118.548 E0.01679
G1 X150.081 Y93.367 E1.11883
G1 X149.547 Y93.367 E0.01679
G1 X174.728 Y118.548 E1.11883
G1 X174.194 Y118.548 E0.01679
G1 X149.012 Y93.367 E1.11883
G1 X148.478 Y93.367 E0.01679
G1 X173.659 Y118.548 E1.11883
G1 X173.125 Y118.548 E0.01679
G1 X147.944 Y93.367 E1.11883
G1 X147.409 Y93.367 E0.01679
G1 X172.590 Y118.548 E1.11883
G1 X172.056 Y118.548 E0.01679
G1 X146.875 Y93.367 E1.11883
G1 X146.341 Y93.367 E0.01679
G1 X171.522 Y118.548 E1.11883
G1 X170.987 Y118.548 E0.01679
G1 X145.806 Y93.367 E1.11883
G1 X145.272 Y93.367 E0.01679
G1 X170.453 Y118.548 E1.11883
G1 X169.919 Y118.548 E0.01679
G1 X144.738 Y93.367 E1.11883
G1 X144.203 Y93.367 E0.01679
G1 X169.384 Y118.548 E1.11883
G1 X168.850 Y118.548 E0.01679
G1 X143.669 Y93.367 E1.11883
G1 X143.134 Y93.367 E0.01679
G1 X168.316 Y118.548 E1.11883
G1 X167.781 Y118.548 E0.01679
G1 X142.600 Y93.367 E1.11883
G1 X142.066 Y93.367 E0.01679
G1 X167.247 Y118.548 E1.11883
G1 X166.713 Y118.548 E0.01679
G1 X141.531 Y93.367 E1.11883
G1 X140.997 Y93.367 E0.01679
G1 X166.178 Y118.548 E1.11883
G1 X165.644 Y118.548 E0.01679
G1 X140.463 Y93.367 E1.11883
M73 Q2 S149
G1 X139.928 Y93.367 E0.01679
G1 X165.110 Y118.548 E1.11883
M73 P2 R149
G1 X164.575 Y118.548 E0.01679
G1 X139.394 Y93.367 E1.11883
G1 X138.860 Y93.367 E0.01679
G1 X164.041 Y118.548 E1.11883
G1 X163.507 Y118.548 E0.01679
G1 X138.325 Y93.367 E1.11883
G1 X137.791 Y93.367 E0.01679
G1 X162.972 Y118.548 E1.11883
G1 X162.438 Y118.548 E0.01679
G1 X137.257 Y93.367 E1.11883
G1 X136.722 Y93.367 E0.01679
G1 X161.903 Y118.548 E1.11883
G1 X161.369 Y118.548 E0.01679
G1 X136.188 Y93.367 E1.11883
G1 X135.654 Y93.367 E0.01679
G1 X160.835 Y118.548 E1.11883
G1 X160.300 Y118.548 E0.01679
G1 X135.119 Y93.367 E1.11883
G1 X134.585 Y93.367 E0.01679
G1 X159.766 Y118.548 E1.11883
G1 X159.232 Y118.548 E0.01679
G1 X134.051 Y93.367 E1.11883
G1 X133.516 Y93.367 E0.01679
G1 X158.697 Y118.548 E1.11883
G1 X158.163 Y118.548 E0.01679
G1 X132.982 Y93.367 E1.11883
G1 X132.447 Y93.367 E0.01679
G1 X157.629 Y118.548 E1.11883
G1 X157.094 Y118.548 E0.01679
G1 X131.913 Y93.367 E1.11883
G1 X131.379 Y93.367 E0.01679
G1 X156.560 Y118.548 E1.11883
G1 X156.026 Y118.548 E0.01679
G1 X130.844 Y93.367 E1.11883
G1 X130.310 Y93.367 E0.01679
G1 X155.491 Y118.548 E1.11883
G1 X154.957 Y118.548 E0.01679
G1 X129.776 Y93.367 E1.11883
G1 X129.241 Y93.367 E0.01679
G1 X154.423 Y118.548 E1.11883
G1 X153.888 Y118.548 E0.01679
G1 X128.707 Y93.367 E1.11883
G1 X128.173 Y93.367 E0.01679
G1 X153.354 Y118.548 E1.11883
G1 X152.820 Y118.548 E0.01679
G1 X127.638 Y93.367 E1.11883
G1 X127.104 Y93.367 E0.01679
G1 X152.285 Y118.548 E1.11883
G1 X151.751 Y118.548 E0.01679
G1 X126.570 Y93.367 E1.11883
G1 X126.035 Y93.367 E0.01679
G1 X151.216 Y118.548 E1.11883
G1 X150.682 Y118.548 E0.01679
G1 X125.501 Y93.367 E1.11883
G1 X124.967 Y93.367 E0.01679
G1 X150.148 Y118.548 E1.11883
G1 X149.613 Y118.548 E0.01679
G1 X124.432 Y93.367 E1.11883
G1 X123.898 Y93.367 E0.01679
G1 X149.079 Y118.548 E1.11883
G1 X148.545 Y118.548 E0.01679
G1 X123.364 Y93.367 E1.11883
G1 X122.829 Y93.367 E0.01679
G1 X148.010 Y118.548 E1.11883
M73 Q3 S148
G1 X147.476 Y118.548 E0.01679
G1 X122.295 Y93.367 E1.11883
G1 X121.760 Y93.367 E0.01679
M73 P3 R148
G1 X146.942 Y118.548 E1.11883
G1 X146.407 Y118.548 E0.01679
G1 X121.226 Y93.367 E1.11883
G1 X120.692 Y93.367 E0.01679
G1 X145.873 Y118.548 E1.11883
G1 X145.339 Y118.548 E0.01679
G1 X120.157 Y93.367 E1.11883
G1 X119.623 Y93.367 E0.01679
G1 X144.804 Y118.548 E1.11883
G1 X144.270 Y118.548 E0.01679
G1 X119.089 Y93.367 E1.11883
G1 X118.554 Y93.367 E0.01679
G1 X143.736 Y118.548 E1.11883
G1 X143.201 Y118.548 E0.01679
G1 X118.020 Y93.367 E1.11883
G1 X117.486 Y93.367 E0.01679
G1 X142.667 Y118.548 E1.11883
G1 X142.133 Y118.548 E0.01679
G1 X116.951 Y93.367 E1.11883
G1 X116.417 Y93.367 E0.01679
G1 X141.598 Y118.548 E1.11883
G1 X141.064 Y118.548 E0.01679
G1 X115.883 Y93.367 E1.11883
G1 X115.348 Y93.367 E0.01679
G1 X140.530 Y118.548 E1.11883
G1 X139.995 Y118.548 E0.01679
G1 X114.814 Y93.367 E1.11883
G1 X114.280 Y93.367 E0.01679
G1 X139.461 Y118.548 E1.11883
G1 X138.926 Y118.548 E0.01679
G1 X113.745 Y93.367 E1.11883
G1 X113.211 Y93.367 E0.01679
G1 X138.392 Y118.548 E1.11883
G1 X137.858 Y118.548 E0.01679
G1 X112.677 Y93.367 E1.11883
G1 X112.142 Y93.367 E0.01679
G1 X137.323 Y118.548 E1.11883
G1 X136.789 Y118.548 E0.01679
G1 X111.608 Y93.367 E1.11883
G1 X111.073 Y93.367 E0.01679
G1 X136.255 Y118.548 E1.11883
G1 X135.720 Y118.548 E0.01679
G1 X110.539 Y93.367 E1.11883
G1 X110.005 Y93.367 E0.01679
G1 X135.186 Y118.548 E1.11883
G1 X134.652 Y118.548 E0.01679
G1 X109.470 Y93.367 E1.11883
G1 X108.936 Y93.367 E0.01679
G1 X134.117 Y118.548 E1.11883
G1 X133.583 Y118.548 E0.01679
G1 X108.402 Y93.367 E1.11883
G1 X107.867 Y93.367 E0.01679
G1 X133.049 Y118.548 E1.11883
G1 X132.514 Y118.548 E0.01679
G1 X107.333 Y93.367 E1.11883
G1 X106.799 Y93.367 E0.01679
G1 X131.980 Y118.548 E1.11883
G1 X131.446 Y118.548 E0.01679
G1 X106.264 Y93.367 E1.11883
G1 X105.730 Y93.367 E0.01679
G1 X130.911 Y118.548 E1.11883
G1 X130.377 Y118.548 E0.01679
G1 X105.196 Y93.367 E1.11883
M73 Q4 S147
G1 X104.661 Y93.367 E0.01679
G1 X129.843 Y118.548 E1.11883
G1 X129.308 Y118.548 E0.01679
M73 P4 R147
G1 X104.127 Y93.367 E1.11883
G1 X103.593 Y93.367 E0.01679
G1 X128.774 Y118.548 E1.11883
G1 X128.239 Y118.548 E0.01679
G1 X103.058 Y93.367 E1.11883
G1 X102.524 Y93.367 E0.01679
G1 X127.705 Y118.548 E1.11883
G1 X127.171 Y118.548 E0.01679
G1 X101.990 Y93.367 E1.11883
G1 X101.455 Y93.367 E0.01679
G1 X126.636 Y118.548 E1.11883
G1 X126.102 Y118.548 E0.01679
G1 X100.921 Y93.367 E1.11883
G1 X100.387 Y93.367 E0.01679
G1 X125.568 Y118.548 E1.11883
G1 X125.033 Y118.548 E0.01679
G1 X99.852 Y93.367 E1.11883
G1 X99.318 Y93.367 E0.01679
G1 X124.499 Y118.548 E1.11883
G1 X123.965 Y118.548 E0.01679
G1 X98.783 Y93.367 E1.11883
G1 X98.249 Y93.367 E0.01679
G1 X123.430 Y118.548 E1.11883
G1 X122.896 Y118.548 E0.01679
G1 X97.715 Y93.367 E1.11883
G1 X97.180 Y93.367 E0.01679
G1 X122.362 Y118.548 E1.11883
G1 X121.827 Y118.548 E0.01679
G1 X96.646 Y93.367 E1.11883
G1 X96.112 Y93.367 E0.01679
G1 X121.293 Y118.548 E1.11883
G1 X120.759 Y118.548 E0.01679
G1 X95.577 Y93.367 E1.11883
G1 X95.043 Y93.367 E0.01679
G1 X120.224 Y118.548 E1.11883
G1 X119.690 Y118.548 E0.01679
G1 X94.509 Y93.367 E1.11883
G1 X93.974 Y93.367 E0.01679
G1 X119.156 Y118.548 E1.11883
G1 X118.621 Y118.548 E0.01679
G1 X93.440 Y93.367 E1.11883
G1 X92.906 Y93.367 E0.01679
G1 X118.087 Y118.548 E1.11883
G1 X117.552 Y118.548 E0.01679
G1 X92.371 Y93.367 E1.11883
G1 X91.837 Y93.367 E0.01679
G1 X117.018 Y118.548 E1.11883
G1 X116.484 Y118.548 E0.01679
G1 X91.303 Y93.367 E1.11883
G1 X90.768 Y93.367 E0.01679
G1 X115.949 Y118.548 E1.11883
G1 X115.415 Y118.548 E0.01679
G1 X90.234 Y93.367 E1.11883
G1 X89.700 Y93.367 E0.01679
G1 X114.881 Y118.548 E1.11883
G1 X114.346 Y118.548 E0.01679
G1 X89.165 Y93.367 E1.11883
G1 X88.631 Y93.367 E0.01679
G1 X113.812 Y118.548 E1.11883
G1 X113.278 Y118.548 E0.01679
G1 X88.096 Y93.367 E1.11883
G1 X87.562 Y93.367 E0.01679
G1 X112.743 Y118.548 E1.11883
M73 Q4 S146
G1 X112.209 Y118.548 E0.01679
G1 X87.028 Y93.367 E1.11883
G1 X86.493 Y93.367 E0.01679
G1 X111.675 Y118.548 E1.11883
M73 P4 R146
G1 X111.140 Y118.548 E0.01679
G1 X85.959 Y93.367 E1.11883
G1 X85.425 Y93.367 E0.01679
G1 X110.606 Y118.548 E1.11883
G1 X110.072 Y118.548 E0.01679
