; generated by PrusaSlicer 2.2.0+linux-x64 on 2021-02-12 at 20:31:20 UTC

; 

; external perimeters extrusion width = 0.45mm
; perimeters extrusion width = 0.45mm
; infill extrusion width = 0.45mm
; solid infill extrusion width = 0.45mm
; top infill extrusion width = 0.40mm
; first layer extrusion width = 0.42mm

M73 P0 R52
M73 Q0 S52
M201 X1000 Y1000 Z200 E5000 ; sets maximum accelerations, mm/sec^2
M203 X200 Y200 Z12 E120 ; sets maximum feedrates, mm/sec
M204 P1250 R1250 T1250 ; sets acceleration (P, T) and retract acceleration (R), mm/sec^2
M205 X8.00 Y8.00 Z0.40 E4.50 ; sets the jerk limits, mm/sec
M205 S0 T0 ; sets the minimum extruding and travel feed rate, mm/sec
M107
M862.3 P "MK3" ; printer model check
M862.1 P0.4 ; nozzle diameter check
M115 U3.9.3 ; tell printer latest fw version
G90 ; use absolute coordinates
M83 ; extruder relative mode
M104 S230 ; set extruder temp
M140 S85 ; set bed temp
M190 S85 ; wait for bed temp
M109 S230 ; wait for extruder temp
G28 W ; home all without mesh bed level
G80 ; mesh bed leveling
G1 Y-3.0 F1000.0 ; go outside print area
G92 E0.0
G1 X60.0 E9.0 F1000.0 ; intro line
M73 Q0 S52
M73 P0 R52
G1 X100.0 E12.5 F1000.0 ; intro line
G92 E0.0
M221 S95

; Don't change E values below. Excessive value can damage the printer.

G21 ; set units to millimeters
G90 ; use absolute coordinates
M83 ; use relative distances for extrusion
M900 K0.08 ; Filament gcode LA 1.5
M900 K45 ; Filament gcode LA 1.0
;BEFORE_LAYER_CHANGE
G92 E0.0
;0.2


G1 E-1.40000 F2100.00000
G1 Z0.200 F10800.000
;AFTER_LAYER_CHANGE
;0.2
G1 Z0.400
G1 X78.464 Y84.185
G1 Z0.200
G1 E1.40000 F2100.00000
M204 S1000
G1 F1200.000
G1 X79.027 Y83.831 E0.02083
G1 X79.500 Y83.676 E0.01562
G1 X79.995 Y83.623 E0.01562
G1 X170.004 Y83.623 E2.82216
G1 X170.899 Y83.799 E0.02860
G1 X171.662 Y84.300 E0.02860
G1 X172.179 Y85.051 E0.02860
G1 X172.376 Y85.946 E0.02872
G1 X172.376 Y124.084 E1.19580
G1 X172.261 Y124.734 E0.02071
G1 X171.971 Y125.328 E0.02071
G1 X171.530 Y125.819 E0.02071
G1 X170.973 Y126.169 E0.02060
G1 X170.500 Y126.324 E0.01562
G1 X170.005 Y126.377 E0.01562
G1 X79.970 Y126.377 E2.82300
G1 X79.302 Y126.272 E0.02119
G1 X78.694 Y125.986 E0.02107
G1 X78.190 Y125.541 E0.02107
G1 X77.831 Y124.973 E0.02107
G1 X77.677 Y124.504 E0.01550
G1 X77.623 Y124.013 E0.01550
G1 X77.624 Y85.931 E1.19400
G1 X77.736 Y85.277 E0.02083
G1 X78.024 Y84.678 E0.02083
G1 X78.424 Y84.230 E0.01883
G1 F8640.000
G1 X79.027 Y83.831 E-0.16677
G1 X79.500 Y83.676 E-0.11500
G1 X79.995 Y83.623 E-0.11500
G1 X84.037 Y83.623 E-0.93322
G1 E-0.07000 F2100.00000
G1 Z0.400 F10800.000
G1 X144.856 Y104.098
G1 Z0.200
G1 E1.40000 F2100.00000
G1 F1200.000
G1 X145.089 Y103.485 E0.02058
G1 X145.462 Y102.945 E0.02058
G1 X145.953 Y102.509 E0.02058
G1 X146.535 Y102.204 E0.02058
G1 X147.172 Y102.047 E0.02058
G1 X147.828 Y102.047 E0.02058
G1 X148.465 Y102.204 E0.02058
G1 X149.047 Y102.509 E0.02058
G1 X149.545 Y102.951 E0.02087
G1 X149.927 Y103.528 E0.02170
G1 X150.144 Y104.098 E0.01913
G1 X150.223 Y104.750 E0.02058
G1 X150.144 Y105.402 E0.02058
G1 X149.911 Y106.015 E0.02058
G1 X149.538 Y106.555 E0.02058
G1 X149.047 Y106.991 E0.02058
G1 X148.465 Y107.296 E0.02058
G1 X147.828 Y107.453 E0.02058
G1 X147.172 Y107.453 E0.02058
G1 X146.535 Y107.296 E0.02058
G1 X145.953 Y106.991 E0.02058
G1 X145.455 Y106.549 E0.02087
G1 X145.073 Y105.972 E0.02170
G1 X144.856 Y105.402 E0.01913
G1 X144.777 Y104.750 E0.02058
G1 X144.849 Y104.158 E0.01870
G1 X145.224 Y104.203 F10800.000
G1 F1200.000
G1 X145.425 Y103.661 E0.01814
G1 X145.746 Y103.196 E0.01771
G1 X146.169 Y102.822 E0.01771
G1 X146.669 Y102.559 E0.01771
G1 X147.218 Y102.424 E0.01771
G1 X147.782 Y102.424 E0.01771
G1 X148.331 Y102.559 E0.01771
G1 X148.831 Y102.822 E0.01771
G1 X149.258 Y103.200 E0.01789
G1 X149.590 Y103.701 E0.01883
G1 X149.775 Y104.189 E0.01638
G1 X149.843 Y104.750 E0.01771
G1 X149.775 Y105.311 E0.01771
G1 X149.575 Y105.839 E0.01771
G1 X149.254 Y106.304 E0.01771
G1 X148.831 Y106.678 E0.01771
G1 X148.331 Y106.941 E0.01771
G1 X147.782 Y107.076 E0.01771
G1 X147.218 Y107.076 E0.01771
G1 X146.669 Y106.941 E0.01771
G1 X146.169 Y106.678 E0.01771
G1 X145.742 Y106.300 E0.01789
G1 X145.410 Y105.799 E0.01883
G1 X145.225 Y105.311 E0.01638
G1 X145.157 Y104.750 E0.01771
G1 X145.216 Y104.263 E0.01538
G1 X145.591 Y104.308 F10800.000
G1 F1200.000
G1 X145.762 Y103.838 E0.01570
G1 X146.031 Y103.448 E0.01484
G1 X146.385 Y103.134 E0.01484
G1 X146.804 Y102.915 E0.01484
G1 X147.263 Y102.801 E0.01484
G1 X147.737 Y102.801 E0.01484
G1 X148.196 Y102.915 E0.01484
G1 X148.615 Y103.134 E0.01484
G1 X148.971 Y103.450 E0.01490
G1 X149.252 Y103.874 E0.01596
G1 X149.406 Y104.280 E0.01362
G1 X149.463 Y104.750 E0.01484
G1 X149.406 Y105.220 E0.01484
G1 X149.238 Y105.662 E0.01484
G1 X148.969 Y106.052 E0.01484
G1 X148.615 Y106.366 E0.01484
G1 X148.196 Y106.585 E0.01484
G1 X147.737 Y106.699 E0.01484
G1 X147.263 Y106.699 E0.01484
G1 X146.804 Y106.585 E0.01484
G1 X146.385 Y106.366 E0.01484
G1 X146.029 Y106.050 E0.01490
G1 X145.748 Y105.626 E0.01596
G1 X145.594 Y105.220 E0.01362
G1 X145.537 Y104.750 E0.01484
G1 X145.583 Y104.368 E0.01206
G1 X145.299 Y104.034 F10800.000
G1 F8640.000
G1 X145.762 Y103.838 E-0.12919
G1 X146.031 Y103.448 E-0.10927
G1 X146.385 Y103.134 E-0.10927
G1 X146.804 Y102.915 E-0.10927
G1 X147.263 Y102.801 E-0.10927
G1 X147.737 Y102.801 E-0.10927
G1 X148.196 Y102.915 E-0.10927
G1 X148.615 Y103.134 E-0.10927
G1 X148.971 Y103.450 E-0.10974
G1 X149.252 Y103.874 E-0.11753
G1 X149.406 Y104.280 E-0.10031
G1 X149.463 Y104.746 E-0.10833
G1 E-0.07000 F2100.00000
G1 Z0.400 F10800.000
G1 X105.223 Y104.750
G1 Z0.200
G1 E1.40000 F2100.00000
G1 F1200.000
G1 X105.144 Y105.402 E0.02058
G1 X104.911 Y106.015 E0.02058
G1 X104.538 Y106.555 E0.02058
G1 X104.047 Y106.991 E0.02058
G1 X103.465 Y107.296 E0.02058
G1 X102.828 Y107.453 E0.02058
G1 X102.172 Y107.453 E0.02058
G1 X101.535 Y107.296 E0.02058
G1 X100.953 Y106.991 E0.02058
G1 X100.462 Y106.555 E0.02058
G1 X100.089 Y106.015 E0.02058
G1 X99.856 Y105.402 E0.02058
G1 X99.777 Y104.750 E0.02058
G1 X99.856 Y104.098 E0.02058
G1 X100.089 Y103.485 E0.02058
G1 X100.462 Y102.945 E0.02058
G1 X100.953 Y102.509 E0.02058
G1 X101.535 Y102.204 E0.02058
G1 X102.172 Y102.047 E0.02058
G1 X102.828 Y102.047 E0.02058
G1 X103.465 Y102.204 E0.02058
G1 X104.047 Y102.509 E0.02058
G1 X104.538 Y102.945 E0.02058
G1 X104.911 Y103.485 E0.02058
G1 X105.144 Y104.098 E0.02058
G1 X105.215 Y104.690 E0.01870
G1 X104.841 Y104.736 F10800.000
G1 F1200.000
G1 X104.775 Y105.311 E0.01814
G1 X104.575 Y105.839 E0.01771
G1 X104.254 Y106.304 E0.01771
G1 X103.831 Y106.678 E0.01771
G1 X103.331 Y106.941 E0.01771
G1 X102.782 Y107.076 E0.01771
G1 X102.218 Y107.076 E0.01771
G1 X101.669 Y106.941 E0.01771
G1 X101.169 Y106.678 E0.01771
G1 X100.746 Y106.304 E0.01771
G1 X100.425 Y105.839 E0.01771
G1 X100.225 Y105.311 E0.01771
G1 X100.157 Y104.750 E0.01771
G1 X100.225 Y104.189 E0.01771
G1 X100.425 Y103.661 E0.01771
G1 X100.746 Y103.196 E0.01771
G1 X101.169 Y102.822 E0.01771
G1 X101.669 Y102.559 E0.01771
G1 X102.218 Y102.424 E0.01771
G1 X102.782 Y102.424 E0.01771
G1 X103.331 Y102.559 E0.01771
G1 X103.831 Y102.822 E0.01771
G1 X104.254 Y103.196 E0.01771
G1 X104.575 Y103.661 E0.01771
G1 X104.775 Y104.189 E0.01771
G1 X104.834 Y104.676 E0.01538
G1 X104.460 Y104.722 F10800.000
G1 F1200.000
G1 X104.406 Y105.220 E0.01570
G1 X104.238 Y105.662 E0.01484
G1 X103.969 Y106.052 E0.01484
G1 X103.615 Y106.366 E0.01484
G1 X103.196 Y106.585 E0.01484
G1 X102.737 Y106.699 E0.01484
G1 X102.263 Y106.699 E0.01484
G1 X101.804 Y106.585 E0.01484
G1 X101.385 Y106.366 E0.01484
G1 X101.031 Y106.052 E0.01484
G1 X100.762 Y105.662 E0.01484
G1 X100.594 Y105.220 E0.01484
G1 X100.537 Y104.750 E0.01484
G1 X100.594 Y104.280 E0.01484
G1 X100.762 Y103.838 E0.01484
G1 X101.031 Y103.448 E0.01484
G1 X101.385 Y103.134 E0.01484
G1 X101.804 Y102.915 E0.01484
G1 X102.263 Y102.801 E0.01484
G1 X102.737 Y102.801 E0.01484
G1 X103.196 Y102.915 E0.01484
G1 X103.615 Y103.134 E0.01484
G1 X103.969 Y103.448 E0.01484
G1 X104.238 Y103.838 E0.01484
G1 X104.406 Y104.280 E0.01484
G1 X104.452 Y104.662 E0.01207
G1 X104.808 Y104.918 F10800.000
G1 F8640.000
G1 X104.406 Y105.220 E-0.12919
G1 X104.238 Y105.662 E-0.10927
G1 X103.969 Y106.052 E-0.10927
G1 X103.615 Y106.366 E-0.10927
G1 X103.196 Y106.585 E-0.10927
G1 X102.737 Y106.699 E-0.10927
G1 X102.263 Y106.699 E-0.10927
G1 X101.804 Y106.585 E-0.10927
G1 X101.385 Y106.366 E-0.10927
G1 X101.031 Y106.052 E-0.10927
G1 X100.762 Y105.662 E-0.10927
G1 X100.596 Y105.224 E-0.10811
G1 E-0.07000 F2100.00000
G1 Z0.400 F10800.000
G1 X84.972 Y87.164
G1 Z0.200
G1 E1.40000 F2100.00000
G1 F1200.000
G1 X165.028 Y87.164 E2.51013
G1 X164.712 Y87.445 E0.01326
G1 X164.339 Y87.985 E0.02058
G1 X164.106 Y88.598 E0.02058
G1 X164.027 Y89.250 E0.02058
G1 X164.106 Y89.902 E0.02058
G1 X164.323 Y90.472 E0.01913
G1 X164.705 Y91.049 E0.02170
G1 X165.203 Y91.491 E0.02088
G1 X165.785 Y91.796 E0.02058
G1 X166.422 Y91.953 E0.02058
G1 X167.078 Y91.953 E0.02058
G1 X167.715 Y91.796 E0.02058
G1 X168.297 Y91.491 E0.02058
G1 X168.788 Y91.055 E0.02058
G1 X168.836 Y90.986 E0.00264
G1 X168.836 Y119.012 E0.87874
G1 X168.795 Y118.951 E0.00232
G1 X168.297 Y118.509 E0.02087
G1 X167.715 Y118.204 E0.02058
G1 X167.078 Y118.047 E0.02058
G1 X166.422 Y118.047 E0.02058
G1 X165.785 Y118.204 E0.02058
G1 X165.203 Y118.509 E0.02058
G1 X164.712 Y118.945 E0.02058
G1 X164.339 Y119.485 E0.02058
G1 X164.106 Y120.098 E0.02058
G1 X164.027 Y120.750 E0.02058
G1 X164.106 Y121.402 E0.02058
G1 X164.323 Y121.972 E0.01913
G1 X164.705 Y122.549 E0.02170
G1 X165.028 Y122.836 E0.01355
G1 X84.972 Y122.836 E2.51013
G1 X85.288 Y122.555 E0.01326
G1 X85.635 Y122.053 E0.01913
G1 X85.892 Y121.411 E0.02170
G1 X85.973 Y120.750 E0.02087
G1 X85.894 Y120.098 E0.02058
G1 X85.661 Y119.485 E0.02058
G1 X85.288 Y118.945 E0.02058
G1 X84.797 Y118.509 E0.02058
G1 X84.215 Y118.204 E0.02058
G1 X83.578 Y118.047 E0.02058
G1 X82.922 Y118.047 E0.02058
G1 X82.285 Y118.204 E0.02058
G1 X81.703 Y118.509 E0.02058
G1 X81.212 Y118.945 E0.02058
G1 X81.164 Y119.014 E0.00264
G1 X81.164 Y90.986 E0.87879
G1 X81.212 Y91.055 E0.00264
G1 X81.703 Y91.491 E0.02058
G1 X82.285 Y91.796 E0.02058
G1 X82.922 Y91.953 E0.02058
G1 X83.578 Y91.953 E0.02058
G1 X84.215 Y91.796 E0.02058
G1 X84.797 Y91.491 E0.02058
G1 X85.288 Y91.055 E0.02058
G1 X85.661 Y90.515 E0.02058
G1 X85.894 Y89.902 E0.02058
G1 X85.973 Y89.250 E0.02058
G1 X85.894 Y88.598 E0.02058
G1 X85.661 Y87.985 E0.02058
G1 X85.288 Y87.445 E0.02058
G1 X85.016 Y87.204 E0.01137
G1 F8640.000
G1 X90.776 Y87.201 E-1.33000
G1 E-0.07000 F2100.00000
G1 Z0.400 F10800.000
G1 X164.407 Y89.250
G1 Z0.200
G1 E1.40000 F2100.00000
G1 F1200.000
G1 X164.475 Y88.689 E0.01771
G1 X164.675 Y88.161 E0.01771
G1 X164.996 Y87.696 E0.01771
G1 X165.419 Y87.322 E0.01771
G1 X165.919 Y87.059 E0.01771
G1 X166.468 Y86.924 E0.01771
G1 X167.032 Y86.924 E0.01771
G1 X167.581 Y87.059 E0.01771
G1 X168.081 Y87.322 E0.01771
G1 X168.508 Y87.700 E0.01789
G1 X168.840 Y88.201 E0.01883
G1 X169.025 Y88.689 E0.01638
G1 X169.093 Y89.250 E0.01771
G1 X169.025 Y89.811 E0.01771
G1 X168.825 Y90.339 E0.01771
G1 X168.504 Y90.804 E0.01771
G1 X168.081 Y91.178 E0.01771
G1 X167.581 Y91.441 E0.01771
G1 X167.032 Y91.576 E0.01771
G1 X166.468 Y91.576 E0.01771
G1 X165.919 Y91.441 E0.01771
G1 X165.419 Y91.178 E0.01771
G1 X164.992 Y90.800 E0.01789
G1 X164.660 Y90.299 E0.01883
G1 X164.475 Y89.811 E0.01638
G1 X164.414 Y89.310 E0.01583
G1 X164.789 Y89.264 F10800.000
G1 F1200.000
G1 X164.844 Y88.780 E0.01527
G1 X165.012 Y88.338 E0.01484
G1 X165.281 Y87.948 E0.01484
G1 X165.635 Y87.634 E0.01484
G1 X166.054 Y87.415 E0.01484
G1 X166.513 Y87.301 E0.01484
G1 X166.987 Y87.301 E0.01484
G1 X167.446 Y87.415 E0.01484
G1 X167.865 Y87.634 E0.01484
G1 X168.221 Y87.950 E0.01490
G1 X168.502 Y88.374 E0.01596
G1 X168.656 Y88.780 E0.01362
G1 X168.713 Y89.250 E0.01484
G1 X168.656 Y89.720 E0.01484
G1 X168.488 Y90.162 E0.01484
G1 X168.219 Y90.552 E0.01484
G1 X167.865 Y90.866 E0.01484
G1 X167.446 Y91.085 E0.01484
G1 X166.987 Y91.199 E0.01484
G1 X166.513 Y91.199 E0.01484
G1 X166.054 Y91.085 E0.01484
G1 X165.635 Y90.866 E0.01484
G1 X165.279 Y90.550 E0.01490
G1 X164.998 Y90.126 E0.01596
G1 X164.844 Y89.720 E0.01362
G1 X164.796 Y89.324 E0.01251
G1 X164.442 Y89.065 F10800.000
G1 F8640.000
G1 X164.844 Y88.780 E-0.12597
G1 X165.012 Y88.338 E-0.10927
G1 X165.281 Y87.948 E-0.10927
G1 X165.635 Y87.634 E-0.10927
G1 X166.054 Y87.415 E-0.10927
G1 X166.513 Y87.301 E-0.10927
G1 X166.987 Y87.301 E-0.10927
G1 X167.446 Y87.415 E-0.10927
G1 X167.865 Y87.634 E-0.10927
G1 X168.221 Y87.950 E-0.10974
G1 X168.502 Y88.374 E-0.11753
G1 X168.656 Y88.780 E-0.10031
G1 X168.657 Y88.790 E-0.00228
G1 E-0.07000 F2100.00000
G1 Z0.400 F10800.000
G1 X168.472 Y87.164
G1 Z0.200
G1 E1.40000 F2100.00000
G1 F1200.000
G1 X168.836 Y87.164 E0.01142
G1 X168.836 Y87.512 E0.01092
G1 X168.795 Y87.451 E0.00232
G1 X168.516 Y87.204 E0.01167
G1 F8640.000
G1 X168.836 Y87.164 E-0.07432
G1 X168.836 Y87.512 E-0.08041
G1 X168.795 Y87.451 E-0.01707
G1 X168.516 Y87.204 E-0.08594
G1 E-1.14226 F2100.00000
G1 Z0.400 F10800.000
G1 X167.032 Y118.424
G1 Z0.200
G1 E1.40000 F2100.00000
G1 F1200.000
G1 X167.581 Y118.559 E0.01771
G1 X168.081 Y118.822 E0.01771
G1 X168.508 Y119.200 E0.01789
G1 X168.840 Y119.701 E0.01883
G1 X169.025 Y120.189 E0.01638
G1 X169.093 Y120.750 E0.01771
G1 X169.025 Y121.311 E0.01771
G1 X168.825 Y121.839 E0.01771
G1 X168.504 Y122.304 E0.01771
G1 X168.081 Y122.678 E0.01771
G1 X167.581 Y122.941 E0.01771
G1 X167.032 Y123.076 E0.01771
G1 X166.468 Y123.076 E0.01771
G1 X165.919 Y122.941 E0.01771
G1 X165.419 Y122.678 E0.01771
G1 X164.992 Y122.300 E0.01789
G1 X164.660 Y121.799 E0.01883
G1 X164.475 Y121.311 E0.01638
G1 X164.407 Y120.750 E0.01771
G1 X164.475 Y120.189 E0.01771
G1 X164.675 Y119.661 E0.01771
G1 X164.996 Y119.196 E0.01771
G1 X165.419 Y118.822 E0.01771
G1 X165.919 Y118.559 E0.01771
G1 X166.468 Y118.424 E0.01771
G1 X166.972 Y118.424 E0.01583
G1 X166.972 Y118.801 F10800.000
G1 F1200.000
G1 X167.446 Y118.915 E0.01527
G1 X167.865 Y119.134 E0.01484
G1 X168.221 Y119.450 E0.01490
G1 X168.502 Y119.874 E0.01596
G1 X168.656 Y120.280 E0.01362
G1 X168.713 Y120.750 E0.01484
G1 X168.656 Y121.220 E0.01484
G1 X168.488 Y121.662 E0.01484
G1 X168.219 Y122.052 E0.01484
G1 X167.865 Y122.366 E0.01484
G1 X167.446 Y122.585 E0.01484
G1 X166.987 Y122.699 E0.01484
G1 X166.513 Y122.699 E0.01484
G1 X166.054 Y122.585 E0.01484
G1 X165.635 Y122.366 E0.01484
G1 X165.279 Y122.050 E0.01490
G1 X164.998 Y121.626 E0.01596
G1 X164.844 Y121.220 E0.01362
G1 X164.787 Y120.750 E0.01484
G1 X164.844 Y120.280 E0.01484
G1 X165.012 Y119.838 E0.01484
G1 X165.281 Y119.448 E0.01484
G1 X165.635 Y119.134 E0.01484
G1 X166.054 Y118.915 E0.01484
G1 X166.513 Y118.801 E0.01484
G1 X166.912 Y118.801 E0.01251
G1 X167.211 Y118.480 F10800.000
G1 F8640.000
G1 X167.446 Y118.915 E-0.12598
G1 X167.865 Y119.134 E-0.10927
G1 X168.221 Y119.450 E-0.10974
G1 X168.502 Y119.874 E-0.11753
G1 X168.656 Y120.280 E-0.10031
G1 X168.713 Y120.750 E-0.10927
G1 X168.656 Y121.220 E-0.10927
G1 X168.488 Y121.662 E-0.10927
G1 X168.219 Y122.052 E-0.10927
G1 X167.865 Y122.366 E-0.10927
G1 X167.446 Y122.585 E-0.10927
G1 X166.987 Y122.699 E-0.10927
G1 X166.977 Y122.699 E-0.00228
G1 E-0.07000 F2100.00000
G1 Z0.400 F10800.000
G1 X168.836 Y122.486
G1 Z0.200
G1 E1.40000 F2100.00000
G1 F1200.000
G1 X168.836 Y122.836 E0.01096
G1 X168.472 Y122.836 E0.01142
G1 X168.802 Y122.536 E0.01400
G1 F8640.000
G1 X168.836 Y122.836 E-0.06979
G1 X168.472 Y122.836 E-0.08412
G1 X168.802 Y122.536 E-0.10307
G1 E-1.14302 F2100.00000
G1 Z0.400 F10800.000
G1 X81.528 Y122.836
G1 Z0.200
G1 E1.40000 F2100.00000
G1 F1200.000
G1 X81.164 Y122.836 E0.01142
G1 X81.164 Y122.486 E0.01096
G1 X81.212 Y122.555 E0.00264
G1 X81.484 Y122.796 E0.01137
G1 X81.919 Y122.678 F10800.000
G1 F1200.000
G1 X81.496 Y122.304 E0.01771
G1 X81.176 Y121.839 E0.01771
G1 X80.975 Y121.311 E0.01771
G1 X80.907 Y120.750 E0.01771
G1 X80.976 Y120.184 E0.01789
G1 X81.200 Y119.626 E0.01883
G1 X81.496 Y119.196 E0.01638
G1 X81.919 Y118.822 E0.01771
G1 X82.419 Y118.559 E0.01771
G1 X82.968 Y118.424 E0.01771
G1 X83.532 Y118.424 E0.01771
