; generated by PrusaSlicer 2.2.0+linux-x64 on 2021-02-12 at 02:34:45 UTC

; 

; external perimeters extrusion width = 0.45mm
; perimeters extrusion width = 0.45mm
; infill extrusion width = 0.45mm
; solid infill extrusion width = 0.45mm
; top infill extrusion width = 0.40mm
; first layer extrusion width = 0.42mm

M73 P0 R464
M73 Q0 S464
M201 X1000 Y1000 Z200 E5000 ; sets maximum accelerations, mm/sec^2
M203 X200 Y200 Z12 E120 ; sets maximum feedrates, mm/sec
M204 P1250 R1250 T1250 ; sets acceleration (P, T) and retract acceleration (R), mm/sec^2
M205 X8.00 Y8.00 Z0.40 E4.50 ; sets the jerk limits, mm/sec
M205 S0 T0 ; sets the minimum extruding and travel feed rate, mm/sec
M107
M862.3 P "MK3" ; printer model check
M862.1 P0.4 ; nozzle diameter check
M115 U3.9.3 ; tell printer latest fw version
G90 ; use absolute coordinates
M83 ; extruder relative mode
M104 S230 ; set extruder temp
M140 S85 ; set bed temp
M190 S85 ; wait for bed temp
M109 S230 ; wait for extruder temp
G28 W ; home all without mesh bed level
G80 ; mesh bed leveling
G1 Y-3.0 F1000.0 ; go outside print area
G92 E0.0
G1 X60.0 E9.0 F1000.0 ; intro line
M73 Q0 S464
M73 P0 R464
G1 X100.0 E12.5 F1000.0 ; intro line
G92 E0.0
M221 S95

; Don't change E values below. Excessive value can damage the printer.

G21 ; set units to millimeters
G90 ; use absolute coordinates
M83 ; use relative distances for extrusion
M900 K0.08 ; Filament gcode LA 1.5
M900 K45 ; Filament gcode LA 1.0
;BEFORE_LAYER_CHANGE
G92 E0.0
;0.2


G1 E-1.40000 F2100.00000
G1 Z0.200 F10800.000
;AFTER_LAYER_CHANGE
;0.2
G1 Z0.400
G1 X44.528 Y19.583
G1 Z0.200
G1 E1.40000 F2100.00000
M204 S1000
G1 F1200.000
G1 X44.970 Y18.854 E0.02673
G1 X45.337 Y18.517 E0.01562
G1 X45.766 Y18.265 E0.01562
G1 X46.239 Y18.107 E0.01562
G1 X46.737 Y18.052 E0.01574
G1 X203.254 Y18.052 E4.90746
G1 X204.156 Y18.231 E0.02884
G1 X204.925 Y18.742 E0.02896
G1 X205.440 Y19.504 E0.02884
G1 X205.627 Y20.405 E0.02884
G1 X205.627 Y194.833 E5.46906
G1 X205.472 Y195.671 E0.02673
G1 X205.030 Y196.400 E0.02673
G1 X204.660 Y196.739 E0.01574
G1 X204.227 Y196.992 E0.01574
G1 X203.754 Y197.148 E0.01562
G1 X203.255 Y197.202 E0.01574
G1 X46.742 Y197.202 E4.90734
G1 X45.904 Y197.047 E0.02673
G1 X45.175 Y196.605 E0.02673
G1 X44.836 Y196.235 E0.01574
G1 X44.583 Y195.802 E0.01574
G1 X44.427 Y195.329 E0.01562
G1 X44.373 Y194.830 E0.01574
G1 X44.373 Y20.421 E5.46846
G1 X44.518 Y19.642 E0.02484
G1 F8640.000
G1 X44.970 Y18.854 E-0.20984
G1 X45.337 Y18.517 E-0.11500
G1 X45.766 Y18.265 E-0.11500
G1 X46.239 Y18.107 E-0.11500
G1 X46.737 Y18.052 E-0.11588
G1 X49.593 Y18.052 E-0.65927
G1 E-0.07000 F2100.00000
G1 Z0.400 F10800.000
G1 X47.914 Y21.593
G1 Z0.200
G1 E1.40000 F2100.00000
G1 F1200.000
G1 X202.086 Y21.593 E4.83394
G1 X202.086 Y193.661 E5.39506
G1 X47.914 Y193.661 E4.83394
M73 Q0 S463
M73 P0 R463
G1 X47.914 Y21.653 E5.39318
G1 X47.537 Y21.216 F10800.000
G1 F1200.000
G1 X202.463 Y21.216 E4.85759
G1 X202.463 Y194.038 E5.41871
G1 X47.537 Y194.038 E4.85759
G1 X47.537 Y21.276 E5.41683
G1 X47.160 Y20.839 F10800.000
G1 F1200.000
G1 X202.840 Y20.839 E4.88124
G1 X202.840 Y194.415 E5.44236
G1 X47.160 Y194.415 E4.88124
M73 Q0 S462
M73 P0 R462
G1 X47.160 Y20.899 E5.44048
G1 X47.544 Y20.949 F10800.000
G1 F8640.000
G1 X52.920 Y20.897 E-1.33000
G1 E-0.07000 F2100.00000
G1 Z0.400 F10800.000
G1 X48.027 Y192.785
G1 Z0.200
G1 E1.40000 F2100.00000
G1 F1200.000
G1 X48.620 Y193.378 E0.02630
G1 X49.154 Y193.378 E0.01672
G1 X48.197 Y192.421 E0.04243
G1 X48.197 Y191.888 E0.01672
G1 X49.687 Y193.378 E0.06608
G1 X50.220 Y193.378 E0.01672
G1 X48.197 Y191.355 E0.08973
G1 X48.197 Y190.821 E0.01672
G1 X50.754 Y193.378 E0.11338
G1 X51.287 Y193.378 E0.01672
G1 X48.197 Y190.288 E0.13703
G1 X48.197 Y189.755 E0.01672
G1 X51.820 Y193.378 E0.16068
G1 X52.354 Y193.378 E0.01672
G1 X48.197 Y189.221 E0.18434
G1 X48.197 Y188.688 E0.01672
G1 X52.887 Y193.378 E0.20799
G1 X53.420 Y193.378 E0.01672
G1 X48.197 Y188.155 E0.23164
G1 X48.197 Y187.621 E0.01672
G1 X53.954 Y193.378 E0.25529
G1 X54.487 Y193.378 E0.01672
G1 X48.197 Y187.088 E0.27894
G1 X48.197 Y186.555 E0.01672
G1 X55.020 Y193.378 E0.30259
G1 X55.554 Y193.378 E0.01672
G1 X48.197 Y186.021 E0.32624
G1 X48.197 Y185.488 E0.01672
G1 X56.087 Y193.378 E0.34989
G1 X56.620 Y193.378 E0.01672
G1 X48.197 Y184.955 E0.37354
G1 X48.197 Y184.421 E0.01672
G1 X57.154 Y193.378 E0.39719
G1 X57.687 Y193.378 E0.01672
G1 X48.197 Y183.888 E0.42085
G1 X48.197 Y183.355 E0.01672
G1 X58.220 Y193.378 E0.44450
G1 X58.754 Y193.378 E0.01672
G1 X48.197 Y182.821 E0.46815
G1 X48.197 Y182.288 E0.01672
G1 X59.287 Y193.378 E0.49180
G1 X59.820 Y193.378 E0.01672
G1 X48.197 Y181.755 E0.51545
G1 X48.197 Y181.221 E0.01672
G1 X60.354 Y193.378 E0.53910
G1 X60.887 Y193.378 E0.01672
G1 X48.197 Y180.688 E0.56275
G1 X48.197 Y180.155 E0.01672
G1 X61.420 Y193.378 E0.58640
G1 X61.954 Y193.378 E0.01672
G1 X48.197 Y179.621 E0.61005
G1 X48.197 Y179.088 E0.01672
G1 X62.487 Y193.378 E0.63370
G1 X63.020 Y193.378 E0.01672
G1 X48.197 Y178.555 E0.65735
G1 X48.197 Y178.021 E0.01672
G1 X63.554 Y193.378 E0.68101
G1 X64.087 Y193.378 E0.01672
G1 X48.197 Y177.488 E0.70466
G1 X48.197 Y176.955 E0.01672
G1 X64.620 Y193.378 E0.72831
G1 X65.154 Y193.378 E0.01672
G1 X48.197 Y176.421 E0.75196
G1 X48.197 Y175.888 E0.01672
G1 X65.687 Y193.378 E0.77561
G1 X66.220 Y193.378 E0.01672
G1 X48.197 Y175.355 E0.79926
G1 X48.197 Y174.822 E0.01672
G1 X66.753 Y193.378 E0.82291
G1 X67.287 Y193.378 E0.01672
G1 X48.197 Y174.288 E0.84656
G1 X48.197 Y173.755 E0.01672
G1 X67.820 Y193.378 E0.87021
G1 X68.353 Y193.378 E0.01672
G1 X48.197 Y173.222 E0.89386
G1 X48.197 Y172.688 E0.01672
G1 X68.887 Y193.378 E0.91752
G1 X69.420 Y193.378 E0.01672
G1 X48.197 Y172.155 E0.94117
G1 X48.197 Y171.622 E0.01672
G1 X69.953 Y193.378 E0.96482
G1 X70.487 Y193.378 E0.01672
G1 X48.197 Y171.088 E0.98847
G1 X48.197 Y170.555 E0.01672
G1 X71.020 Y193.378 E1.01212
G1 X71.553 Y193.378 E0.01672
G1 X48.197 Y170.022 E1.03577
G1 X48.197 Y169.488 E0.01672
G1 X72.087 Y193.378 E1.05942
G1 X72.620 Y193.378 E0.01672
G1 X48.197 Y168.955 E1.08307
G1 X48.197 Y168.422 E0.01672
G1 X73.153 Y193.378 E1.10672
G1 X73.687 Y193.378 E0.01672
G1 X48.197 Y167.888 E1.13037
G1 X48.197 Y167.355 E0.01672
G1 X74.220 Y193.378 E1.15402
G1 X74.753 Y193.378 E0.01672
G1 X48.197 Y166.822 E1.17768
M73 Q0 S461
G1 X48.197 Y166.288 E0.01672
G1 X75.287 Y193.378 E1.20133
M73 P0 R461
G1 X75.820 Y193.378 E0.01672
G1 X48.197 Y165.755 E1.22498
G1 X48.197 Y165.222 E0.01672
G1 X76.353 Y193.378 E1.24863
G1 X76.887 Y193.378 E0.01672
G1 X48.197 Y164.688 E1.27228
G1 X48.197 Y164.155 E0.01672
G1 X77.420 Y193.378 E1.29593
G1 X77.953 Y193.378 E0.01672
G1 X48.197 Y163.622 E1.31958
G1 X48.197 Y163.088 E0.01672
G1 X78.487 Y193.378 E1.34323
G1 X79.020 Y193.378 E0.01672
G1 X48.197 Y162.555 E1.36688
G1 X48.197 Y162.022 E0.01672
G1 X79.553 Y193.378 E1.39053
G1 X80.087 Y193.378 E0.01672
G1 X48.197 Y161.488 E1.41419
G1 X48.197 Y160.955 E0.01672
G1 X80.620 Y193.378 E1.43784
G1 X81.153 Y193.378 E0.01672
G1 X48.197 Y160.422 E1.46149
G1 X48.197 Y159.888 E0.01672
G1 X81.687 Y193.378 E1.48514
G1 X82.220 Y193.378 E0.01672
G1 X48.197 Y159.355 E1.50879
G1 X48.197 Y158.822 E0.01672
G1 X82.753 Y193.378 E1.53244
G1 X83.287 Y193.378 E0.01672
G1 X48.197 Y158.288 E1.55609
G1 X48.197 Y157.755 E0.01672
G1 X83.820 Y193.378 E1.57974
G1 X84.353 Y193.378 E0.01672
G1 X48.197 Y157.222 E1.60339
G1 X48.197 Y156.688 E0.01672
G1 X84.887 Y193.378 E1.62704
G1 X85.420 Y193.378 E0.01672
G1 X48.197 Y156.155 E1.65069
G1 X48.197 Y155.622 E0.01672
G1 X85.953 Y193.378 E1.67435
G1 X86.487 Y193.378 E0.01672
G1 X48.197 Y155.088 E1.69800
G1 X48.197 Y154.555 E0.01672
G1 X87.020 Y193.378 E1.72165
G1 X87.553 Y193.378 E0.01672
G1 X48.197 Y154.022 E1.74530
G1 X48.197 Y153.488 E0.01672
G1 X88.087 Y193.378 E1.76895
M73 Q0 S460
G1 X88.620 Y193.378 E0.01672
G1 X48.197 Y152.955 E1.79260
M73 P0 R460
G1 X48.197 Y152.422 E0.01672
G1 X89.153 Y193.378 E1.81625
G1 X89.686 Y193.378 E0.01672
G1 X48.197 Y151.889 E1.83990
G1 X48.197 Y151.355 E0.01672
G1 X90.220 Y193.378 E1.86355
G1 X90.753 Y193.378 E0.01672
G1 X48.197 Y150.822 E1.88720
G1 X48.197 Y150.289 E0.01672
G1 X91.286 Y193.378 E1.91085
G1 X91.820 Y193.378 E0.01672
G1 X48.197 Y149.755 E1.93451
G1 X48.197 Y149.222 E0.01672
G1 X92.353 Y193.378 E1.95816
G1 X92.886 Y193.378 E0.01672
G1 X48.197 Y148.689 E1.98181
G1 X48.197 Y148.155 E0.01672
G1 X93.420 Y193.378 E2.00546
G1 X93.953 Y193.378 E0.01672
G1 X48.197 Y147.622 E2.02911
G1 X48.197 Y147.089 E0.01672
G1 X94.486 Y193.378 E2.05276
G1 X95.020 Y193.378 E0.01672
G1 X48.197 Y146.555 E2.07641
G1 X48.197 Y146.022 E0.01672
G1 X95.553 Y193.378 E2.10006
G1 X96.086 Y193.378 E0.01672
G1 X48.197 Y145.489 E2.12371
G1 X48.197 Y144.955 E0.01672
G1 X96.620 Y193.378 E2.14736
G1 X97.153 Y193.378 E0.01672
G1 X48.197 Y144.422 E2.17102
G1 X48.197 Y143.889 E0.01672
G1 X97.686 Y193.378 E2.19467
G1 X98.220 Y193.378 E0.01672
G1 X48.197 Y143.355 E2.21832
M73 Q1 S459
G1 X48.197 Y142.822 E0.01672
G1 X98.753 Y193.378 E2.24197
M73 P1 R459
G1 X99.286 Y193.378 E0.01672
G1 X48.197 Y142.289 E2.26562
G1 X48.197 Y141.755 E0.01672
G1 X99.820 Y193.378 E2.28927
G1 X100.353 Y193.378 E0.01672
G1 X48.197 Y141.222 E2.31292
G1 X48.197 Y140.689 E0.01672
G1 X100.886 Y193.378 E2.33657
G1 X101.420 Y193.378 E0.01672
G1 X48.197 Y140.155 E2.36022
G1 X48.197 Y139.622 E0.01672
G1 X101.953 Y193.378 E2.38387
G1 X102.486 Y193.378 E0.01672
G1 X48.197 Y139.089 E2.40752
G1 X48.197 Y138.555 E0.01672
G1 X103.020 Y193.378 E2.43118
G1 X103.553 Y193.378 E0.01672
G1 X48.197 Y138.022 E2.45483
G1 X48.197 Y137.489 E0.01672
G1 X104.086 Y193.378 E2.47848
G1 X104.620 Y193.378 E0.01672
G1 X48.197 Y136.955 E2.50213
G1 X48.197 Y136.422 E0.01672
G1 X105.153 Y193.378 E2.52578
G1 X105.686 Y193.378 E0.01672
G1 X48.197 Y135.889 E2.54943
G1 X48.197 Y135.355 E0.01672
G1 X106.220 Y193.378 E2.57308
G1 X106.753 Y193.378 E0.01672
G1 X48.197 Y134.822 E2.59673
M73 Q1 S458
G1 X48.197 Y134.289 E0.01672
G1 X107.286 Y193.378 E2.62038
M73 P1 R458
G1 X107.820 Y193.378 E0.01672
G1 X48.197 Y133.755 E2.64403
G1 X48.197 Y133.222 E0.01672
G1 X108.353 Y193.378 E2.66769
G1 X108.886 Y193.378 E0.01672
G1 X48.197 Y132.689 E2.69134
G1 X48.197 Y132.155 E0.01672
G1 X109.420 Y193.378 E2.71499
G1 X109.953 Y193.378 E0.01672
G1 X48.197 Y131.622 E2.73864
G1 X48.197 Y131.089 E0.01672
G1 X110.486 Y193.378 E2.76229
G1 X111.019 Y193.378 E0.01672
G1 X48.197 Y130.556 E2.78594
G1 X48.197 Y130.022 E0.01672
G1 X111.553 Y193.378 E2.80959
G1 X112.086 Y193.378 E0.01672
G1 X48.197 Y129.489 E2.83324
G1 X48.197 Y128.956 E0.01672
G1 X112.619 Y193.378 E2.85689
G1 X113.153 Y193.378 E0.01672
G1 X48.197 Y128.422 E2.88054
G1 X48.197 Y127.889 E0.01672
G1 X113.686 Y193.378 E2.90419
G1 X114.219 Y193.378 E0.01672
G1 X48.197 Y127.356 E2.92785
M73 Q1 S457
G1 X48.197 Y126.822 E0.01672
G1 X114.753 Y193.378 E2.95150
M73 P1 R457
G1 X115.286 Y193.378 E0.01672
G1 X48.197 Y126.289 E2.97515
G1 X48.197 Y125.756 E0.01672
G1 X115.819 Y193.378 E2.99880
G1 X116.353 Y193.378 E0.01672
G1 X48.197 Y125.222 E3.02245
G1 X48.197 Y124.689 E0.01672
G1 X116.886 Y193.378 E3.04610
G1 X117.419 Y193.378 E0.01672
G1 X48.197 Y124.156 E3.06975
G1 X48.197 Y123.622 E0.01672
G1 X117.953 Y193.378 E3.09340
G1 X118.486 Y193.378 E0.01672
G1 X48.197 Y123.089 E3.11705
G1 X48.197 Y122.556 E0.01672
G1 X119.019 Y193.378 E3.14070
G1 X119.553 Y193.378 E0.01672
G1 X48.197 Y122.022 E3.16436
G1 X48.197 Y121.489 E0.01672
G1 X120.086 Y193.378 E3.18801
G1 X120.619 Y193.378 E0.01672
G1 X48.197 Y120.956 E3.21166
G1 X48.197 Y120.422 E0.01672
G1 X121.153 Y193.378 E3.23531
M73 Q1 S456
G1 X121.686 Y193.378 E0.01672
G1 X48.197 Y119.889 E3.25896
M73 P1 R456
G1 X48.197 Y119.356 E0.01672
G1 X122.219 Y193.378 E3.28261
G1 X122.753 Y193.378 E0.01672
G1 X48.197 Y118.822 E3.30626
G1 X48.197 Y118.289 E0.01672
G1 X123.286 Y193.378 E3.32991
G1 X123.819 Y193.378 E0.01672
G1 X48.197 Y117.756 E3.35356
G1 X48.197 Y117.222 E0.01672
G1 X124.353 Y193.378 E3.37721
G1 X124.886 Y193.378 E0.01672
G1 X48.197 Y116.689 E3.40086
G1 X48.197 Y116.156 E0.01672
G1 X125.419 Y193.378 E3.42452
G1 X125.953 Y193.378 E0.01672
G1 X48.197 Y115.622 E3.44817
G1 X48.197 Y115.089 E0.01672
G1 X126.486 Y193.378 E3.47182
G1 X127.019 Y193.378 E0.01672
G1 X48.197 Y114.556 E3.49547
G1 X48.197 Y114.022 E0.01672
G1 X127.553 Y193.378 E3.51912
M73 Q2 S455
M73 P2 R455
G1 X128.086 Y193.378 E0.01672
G1 X48.197 Y113.489 E3.54277
G1 X48.197 Y112.956 E0.01672
G1 X128.619 Y193.378 E3.56642
G1 X129.153 Y193.378 E0.01672
G1 X48.197 Y112.422 E3.59007
G1 X48.197 Y111.889 E0.01672
G1 X129.686 Y193.378 E3.61372
G1 X130.219 Y193.378 E0.01672
G1 X48.197 Y111.356 E3.63737
G1 X48.197 Y110.822 E0.01672
G1 X130.753 Y193.378 E3.66103
G1 X131.286 Y193.378 E0.01672
G1 X48.197 Y110.289 E3.68468
G1 X48.197 Y109.756 E0.01672
G1 X131.819 Y193.378 E3.70833
G1 X132.353 Y193.378 E0.01672
G1 X48.197 Y109.222 E3.73198
G1 X48.197 Y108.689 E0.01672
G1 X132.886 Y193.378 E3.75563
G1 X133.419 Y193.378 E0.01672
G1 X48.197 Y108.156 E3.77928
M73 Q2 S454
M73 P2 R453
G1 X48.197 Y107.623 E0.01672
G1 X133.952 Y193.378 E3.80293
G1 X134.486 Y193.378 E0.01672
G1 X48.197 Y107.089 E3.82658
G1 X48.197 Y106.556 E0.01672
G1 X135.019 Y193.378 E3.85023
G1 X135.552 Y193.378 E0.01672
G1 X48.197 Y106.023 E3.87388
G1 X48.197 Y105.489 E0.01672
G1 X136.086 Y193.378 E3.89753
G1 X136.619 Y193.378 E0.01672
G1 X48.197 Y104.956 E3.92119
G1 X48.197 Y104.423 E0.01672
G1 X137.152 Y193.378 E3.94484
G1 X137.686 Y193.378 E0.01672
G1 X48.197 Y103.889 E3.96849
G1 X48.197 Y103.356 E0.01672
G1 X138.219 Y193.378 E3.99214
G1 X138.752 Y193.378 E0.01672
G1 X48.197 Y102.823 E4.01579
M73 Q2 S453
M73 P2 R452
G1 X48.197 Y102.289 E0.01672
G1 X139.286 Y193.378 E4.03944
G1 X139.819 Y193.378 E0.01672
G1 X48.197 Y101.756 E4.06309
G1 X48.197 Y101.223 E0.01672
G1 X140.352 Y193.378 E4.08674
G1 X140.886 Y193.378 E0.01672
G1 X48.197 Y100.689 E4.11039
G1 X48.197 Y100.156 E0.01672
G1 X141.419 Y193.378 E4.13404
G1 X141.952 Y193.378 E0.01672
G1 X48.197 Y99.623 E4.15769
G1 X48.197 Y99.089 E0.01672
G1 X142.486 Y193.378 E4.18135
G1 X143.019 Y193.378 E0.01672
G1 X48.197 Y98.556 E4.20500
G1 X48.197 Y98.023 E0.01672
G1 X143.552 Y193.378 E4.22865
G1 X144.086 Y193.378 E0.01672
G1 X48.197 Y97.489 E4.25230
M73 Q2 S452
M73 P2 R451
G1 X48.197 Y96.956 E0.01672
G1 X144.619 Y193.378 E4.27595
G1 X145.152 Y193.378 E0.01672
G1 X48.197 Y96.423 E4.29960
G1 X48.197 Y95.889 E0.01672
G1 X145.686 Y193.378 E4.32325
G1 X146.219 Y193.378 E0.01672
G1 X48.197 Y95.356 E4.34690
G1 X48.197 Y94.823 E0.01672
G1 X146.752 Y193.378 E4.37055
G1 X147.286 Y193.378 E0.01672
G1 X48.197 Y94.289 E4.39420
G1 X48.197 Y93.756 E0.01672
G1 X147.819 Y193.378 E4.41786
G1 X148.352 Y193.378 E0.01672
G1 X48.197 Y93.223 E4.44151
G1 X48.197 Y92.689 E0.01672
G1 X148.886 Y193.378 E4.46516
M73 Q2 S451
M73 P2 R450
G1 X149.419 Y193.378 E0.01672
G1 X48.197 Y92.156 E4.48881
G1 X48.197 Y91.623 E0.01672
G1 X149.952 Y193.378 E4.51246
G1 X150.486 Y193.378 E0.01672
G1 X48.197 Y91.089 E4.53611
G1 X48.197 Y90.556 E0.01672
G1 X151.019 Y193.378 E4.55976
G1 X151.552 Y193.378 E0.01672
G1 X48.197 Y90.023 E4.58341
G1 X48.197 Y89.489 E0.01672
G1 X152.086 Y193.378 E4.60706
G1 X152.619 Y193.378 E0.01672
G1 X48.197 Y88.956 E4.63071
G1 X48.197 Y88.423 E0.01672
G1 X153.152 Y193.378 E4.65436
G1 X153.686 Y193.378 E0.01672
G1 X48.197 Y87.889 E4.67802
M73 Q3 S450
M73 P3 R449
G1 X48.197 Y87.356 E0.01672
G1 X154.219 Y193.378 E4.70167
G1 X154.752 Y193.378 E0.01672
G1 X48.197 Y86.823 E4.72532
G1 X48.197 Y86.289 E0.01672
G1 X155.286 Y193.378 E4.74897
G1 X155.819 Y193.378 E0.01672
G1 X48.197 Y85.756 E4.77262
G1 X48.197 Y85.223 E0.01672
G1 X156.352 Y193.378 E4.79627
G1 X156.885 Y193.378 E0.01672
G1 X48.197 Y84.690 E4.81992
G1 X48.197 Y84.156 E0.01672
G1 X157.419 Y193.378 E4.84357
G1 X157.952 Y193.378 E0.01672
G1 X48.197 Y83.623 E4.86722
M73 Q3 S448
M73 P3 R448
G1 X48.197 Y83.090 E0.01672
G1 X158.485 Y193.378 E4.89087
G1 X159.019 Y193.378 E0.01672
G1 X48.197 Y82.556 E4.91453
G1 X48.197 Y82.023 E0.01672
G1 X159.552 Y193.378 E4.93818
G1 X160.085 Y193.378 E0.01672
G1 X48.197 Y81.490 E4.96183
G1 X48.197 Y80.956 E0.01672
G1 X160.619 Y193.378 E4.98548
G1 X161.152 Y193.378 E0.01672
